X: 17176
T: Hennessy & Kerr
R: jig
M: 6/8
K: Adorian
A3 ABd|edB g2f|edB Agf|edB GAB|
A3 ABd|edB g2a|bag eag|1 edB GAB:|2 edB Aef||
g3 gfg|a3 agf|ged Bgf|edB Aef|
g3 gfg|a3 aga|bag eag|edB Aef|
g3 gfg|a3 agf|ged Bgf|edB GAB|
A3 ABd|edB g2a|bag eag|edB GAB||

